assets/icons/chevron-down.svg

<svg width="24" height="25" viewBox="0 0 24 25" fill="none" xmlns="http://www.w3.org/2000/svg">
<path d="M20.242 7.92093C20.6215 7.6727 21.1367 7.71594 21.4684 8.05042C21.8002 8.3849 21.8378 8.89942 21.5865 9.27683L21.4627 9.43108L14.2376 16.5952C13.0814 17.7421 11.2438 17.8139 10.0023 16.8104L9.76238 16.5952L2.53728 9.43108L2.41349 9.27683C2.16221 8.89942 2.19984 8.3849 2.53156 8.05042C2.86334 7.71594 3.37851 7.6727 3.75797 7.92093L3.91222 8.04471L11.1354 15.2108L11.3259 15.365C11.7991 15.6731 12.4506 15.6214 12.8646 15.2108L20.0878 8.04471L20.242 7.92093Z" fill="#6C757D"/>
</svg>

<svg xmlns="http://www.w3.org/2000/svg" width="24" height="25" fill="none" viewBox="0 0 24 25"><path fill="#6C757D" d="M20.242 7.92a.975.975 0 0 1 1.345 1.356l-.124.155-7.225 7.164a3.19 3.19 0 0 1-4.236.215l-.24-.215-7.225-7.164-.124-.154A.975.975 0 0 1 3.758 7.92l.154.124 7.223 7.166.19.154a1.24 1.24 0 0 0 1.54-.154l7.223-7.166z"/></svg>
